X: 158
T: He Is Again Gone on the Warpath
C: Teton Sioux band 1911-1914
N: Derived from sioux153.krn
O: South Dakota, U.S.A.
N: Teton Sioux Music by Frances Densmore, 1918
Z: transcribed to **kern format by Craig Sapp
L: 1/8
M: 2/4
Q: 1/4=58
K: F# clef=bass
%%linebreak <none>
C2D3/ C/ [I:setbarnb 2]| 
C2D/ C3/ ||  
[M:3/4]=A,/> G,/ G,G,4 | 
=A,2C/ A,/ A, G, F, | 
G,< G, G,< F,C,2 | 
F, F, A,/ G,/ A, G, F, | 
G, G, A,< F, C, C, ||  
[M:2/4]C,4 ||  
[M:3/4]C,6 | 
C C (3:2:4(D/ C/) C C C/ C/- C | 
C/< C/ (D/< C/) (D/< C/) =A, (A,3/ G,/) ||  
[M:2/4]G,4 ||  
[M:3/4]=A, A, (C/ A,/) A, G, F, | 
G,< G, G, D,C,2 | 
F, F, A,/ G,/ A, G, F, | 
G, G, A,< F, C, C, ||  
[M:2/4]C,4 | 
C,2z2 |]  



